icons/groovy.svg

<svg width="16" height="16" viewBox="0 0 16 16" fill="none" xmlns="http://www.w3.org/2000/svg">
<path d="M8.38206 4.53559V3.37288C4.47417 5.11695 4.5318 9.36308 7.07943 8.60509C9.03338 8.02374 10.5268 5.76883 10.9873 4.53559C11.7869 2.39444 10.3105 1.20825 9.68469 1.04746C9.31493 0.952451 6.64523 0.466103 4.47417 3.37288C2.30312 6.27966 3.17154 9.7678 3.17154 9.7678C3.17154 9.7678 3.5 11.5119 6 11.5119C8.29367 11.5119 11.0658 8.46893 11.5 7.5C12.1513 8.66271 11.2569 10.3781 10 11.5C8.74309 12.6219 7.07943 12.6746 4.47417 12.6746C5.12548 13.2559 5.7768 14.4186 5.7768 15C7.07943 15 10.5684 14.8204 12.29 11.5119C13.5 9.18644 12.9413 7.44238 11.6386 5.69831C11 7 9.1511 8.5 8.38206 9.18644C7.61302 9.87289 6.51321 10.098 5.12548 9.7678C3.69152 9.4266 3.82286 6.27966 5.12549 4.53559C6.42812 2.79153 7.73074 2.21017 8.38206 2.21017C9.03338 2.21017 10.336 2.79153 9.68469 4.53559C9.38022 5.3509 8.38206 7.44238 7.07943 7.44238C5.38063 7.44238 7.07943 5.11695 8.38206 4.53559Z" fill="#68B2E4"/>
</svg>

<svg xmlns="http://www.w3.org/2000/svg" width="16" height="16" fill="none"><path fill="#68B2E4" d="M8.382 4.536V3.373c-3.908 1.744-3.85 5.99-1.303 5.232 1.954-.581 3.448-2.836 3.908-4.07.8-2.14-.677-3.327-1.302-3.488-.37-.095-3.04-.58-5.21 2.326C2.302 6.28 3.171 9.768 3.171 9.768S3.5 11.512 6 11.512c2.294 0 5.066-3.043 5.5-4.012.651 1.163-.243 2.878-1.5 4-1.257 1.122-2.92 1.175-5.526 1.175.651.58 1.303 1.744 1.303 2.325 1.302 0 4.791-.18 6.513-3.488 1.21-2.326.651-4.07-.651-5.814C11 7 9.15 8.5 8.382 9.186c-.769.687-1.869.912-3.257.582-1.433-.341-1.302-3.488 0-5.232C6.428 2.792 7.731 2.21 8.382 2.21c.651 0 1.954.582 1.303 2.326-.305.815-1.303 2.906-2.606 2.906-1.698 0 0-2.325 1.303-2.906Z"/></svg>
